X:959
T:The Humors of Castlelyons
N:"Collected by F.O'Neill"
B:O'Neill's 959
Z:Transcribed by Dan G. Petersen, dangp@post6.tele.dk
M:6/8
L:1/8
K:Em
G3 BAG|d2G BAG|A2B c2d|efe dBA|
G3 BAG|d2G BAG|A2B c2A|BGET(E2D):|
gag gdB|gag gdB|A2B c2d|efe dBd|
[1 gag gdB|gag gdB|A2B cBA|BGET(E2D):|
[2 G3 BAG|d2G BAG|A2B c2A|BGET(E2D)|]


